weasis-distributions/resources/svg/action/crosshair.svg

<svg width="16" height="16" viewBox="0 0 16 16" fill="none" xmlns="http://www.w3.org/2000/svg">
<path d="M7.5 0H8.5V4L8 6L7.5 4V0Z" fill="#6E6E6E"/>
<path d="M8.5 16H7.5V12L8 10L8.5 12V16Z" fill="#6E6E6E"/>
<path d="M16 7.5V8.5H12L10 8L12 7.5H16Z" fill="#6E6E6E"/>
<path d="M0 8.5V7.5H4L6 8L4 8.5H0Z" fill="#6E6E6E"/>
<path d="M8 2.5C9.45869 2.5 10.8576 3.07946 11.8891 4.11091C12.9205 5.14236 13.5 6.54131 13.5 8C13.5 9.45869 12.9205 10.8576 11.8891 11.8891C10.8576 12.9205 9.45869 13.5 8 13.5C6.54131 13.5 5.14236 12.9205 4.11091 11.8891C3.07946 10.8576 2.5 9.45869 2.5 8C2.50264 6.54229 3.08282 5.14503 4.11348 4.11418C5.14414 3.08334 6.5413 2.50291 7.999 2.5H8ZM8 1C6.14348 1 4.36301 1.7375 3.05025 3.05025C1.7375 4.36301 1 6.14348 1 8C1 9.85652 1.7375 11.637 3.05025 12.9497C4.36301 14.2625 6.14348 15 8 15C9.85652 15 11.637 14.2625 12.9497 12.9497C14.2625 11.637 15 9.85652 15 8C15 6.14348 14.2625 4.36301 12.9497 3.05025C11.637 1.7375 9.85652 1 8 1Z" fill="#6E6E6E"/>
</svg>

<?xml version="1.0" encoding="UTF-8"?>
<svg width="16" height="16" fill="none" version="1.1" viewBox="0 0 16 16" xmlns="http://www.w3.org/2000/svg">
 <path d="m8 2.5c1.4587 0 2.8576 0.57946 3.8891 1.6109 1.0314 1.0314 1.6109 2.4304 1.6109 3.8891s-0.5795 2.8576-1.6109 3.8891c-1.0315 1.0314-2.4304 1.6109-3.8891 1.6109s-2.8576-0.5795-3.8891-1.6109c-1.0314-1.0315-1.6109-2.4304-1.6109-3.8891 0.00264-1.4577 0.58282-2.855 1.6135-3.8858 1.0307-1.0308 2.4278-1.6113 3.8855-1.6142h1e-3zm0-1.5c-1.8565 0-3.637 0.7375-4.9498 2.0502-1.3128 1.3128-2.0502 3.0932-2.0502 4.9498s0.7375 3.637 2.0502 4.9497c1.3128 1.3128 3.0932 2.0503 4.9498 2.0503s3.637-0.7375 4.9497-2.0503c1.3128-1.3127 2.0503-3.0932 2.0503-4.9497s-0.7375-3.637-2.0503-4.9498c-1.3127-1.3128-3.0932-2.0502-4.9497-2.0502z" fill="#6E6E6E"/>
 <g>
  <path d="M7.5 0H8.5V4L8 6L7.5 4V0Z" fill="#0db14b"/>
  <path d="m8.5 16h-1v-4l0.5-2 0.5 2v4z" fill="#0db14b"/>
  <path d="m16 7.5v1h-4l-2-0.5 2-0.5h4z" fill="#ed1c24"/>
  <path d="M0 8.5V7.5H4L6 8L4 8.5H0Z" fill="#ed1c24"/>
 </g>
</svg>
